X:133
T:Humors of Tuamgraney, The 
T:Tuamgraney Castle
B:CRE2.310 (PlÃÂÃÂÃÂÃÂ©arÃÂÃÂÃÂÃÂ¡ca Thuaim Greine)
F:file ID: cre.2/133hu_tuam
S:Paddy O'Brien 
L:1/8
M:C
R:hornpipe
Q:150
K:Am
cB|A2AB AGEG|AGAB cBcd|(3e^fg fa gedc|B2G2 G2cB|
A2AB AGEG|AGAB cBcd|(3e^fg fa gedB|c2A2 A2:|
|:(3e^fg|agab ageg|agab (3aba ge|dega gedc|B2G2 G2cB|
A2AB AGEG|AGAB cBcd|(3e^fg fa gedB|c2A2 A2:|

%%%

